assets/svg/icon_bookmarks.svg

<svg width="24" height="24" viewBox="0 0 24 24" fill="none" xmlns="http://www.w3.org/2000/svg">
<path fill-rule="evenodd" clip-rule="evenodd" d="M11.9121 2.90039H12.0868C13.6454 2.90038 14.9353 2.90037 15.9587 3.04269C17.0385 3.19307 17.9913 3.52213 18.7521 4.31341C19.5099 5.09958 19.8216 6.07898 19.9645 7.1844C20.1003 8.24201 20.1004 9.57843 20.1004 11.2017V15.306C20.1004 16.4694 20.1004 17.4385 20.0241 18.1799C19.9504 18.9057 19.7776 19.7314 19.1646 20.313C18.7135 20.7418 18.1392 21.0128 17.526 21.0856C16.6782 21.1852 15.9481 20.763 15.3724 20.3432C14.7842 19.914 14.0839 19.2778 13.2472 18.5176L13.2139 18.4873L13.1826 18.4595C12.7742 18.0881 12.5257 17.8644 12.3272 17.7144C12.237 17.6463 12.1788 17.6113 12.1435 17.5932C12.1194 17.5809 12.1068 17.5768 12.1021 17.5756C12.0347 17.5627 11.966 17.5627 11.8987 17.5756C11.894 17.5768 11.8814 17.5809 11.8573 17.5932C11.822 17.6113 11.7637 17.6463 11.6734 17.7145L11.6716 17.7158C11.4729 17.8647 11.2285 18.0864 10.8181 18.4594L10.8136 18.4636L10.7872 18.4871C9.93562 19.2627 9.2245 19.9103 8.62763 20.3438C8.05121 20.7626 7.32353 21.1853 6.47558 21.0857C5.86239 21.0129 5.28729 20.7418 4.83616 20.313C4.22251 19.7309 4.0521 18.9037 3.9768 18.1806C3.90045 17.4392 3.90038 16.4694 3.90039 15.306V11.2016C3.90038 9.57647 3.90037 8.24246 4.03624 7.18485L4.03643 7.18332C4.1811 6.07964 4.49055 5.10024 5.24639 4.31384C6.00737 3.52213 6.96227 3.1931 8.03989 3.04273C9.06333 2.90041 10.3534 2.90038 11.9121 2.90039ZM8.20573 4.23121C9.13716 4.10172 10.3442 4.10039 11.9551 4.10039H12.0437C13.6548 4.10039 14.8618 4.10172 15.7933 4.23124M15.7933 4.23124C16.7315 4.36192 17.3849 4.62266 17.8873 5.1454C18.3926 5.66949 18.6476 6.3572 18.7743 7.33775C18.8993 8.31022 18.9004 9.56978 18.9004 11.2419V15.272C18.9004 16.4767 18.8996 17.3843 18.8304 18.057C18.7615 18.7362 18.6183 19.1774 18.3384 19.4427C18.0733 19.6948 17.7383 19.8519 17.3849 19.8939C17.0195 19.9367 16.6166 19.7652 16.0795 19.3737C15.5475 18.9855 14.8917 18.3904 14.0186 17.5972L13.9876 17.5695C13.5961 17.2135 13.3022 16.947 13.0505 16.7569C12.7955 16.5644 12.5797 16.4503 12.3496 16.4013L12.3425 16.3999C12.1165 16.3546 11.8843 16.3546 11.6582 16.3999L11.6512 16.4013C11.4214 16.4502 11.206 16.5639 10.9514 16.756C10.7031 16.9421 10.4178 17.2016 10.0435 17.5419L10.0131 17.5696L9.98652 17.5932L9.98159 17.5977C9.10878 18.3927 8.45343 18.9872 7.9224 19.3729C7.38199 19.7655 6.98109 19.9367 6.61586 19.8939C6.26248 19.8519 5.92803 19.6953 5.66289 19.4433C5.38347 19.1783 5.24143 18.7386 5.17039 18.0567C5.10114 17.3841 5.10039 16.4766 5.10039 15.272V11.2419C5.10039 9.56825 5.10153 8.31087 5.22636 7.3385C5.35519 6.35628 5.60807 5.66923 6.11156 5.14539C6.61386 4.62281 7.26912 4.36194 8.20573 4.23121" fill="#0166FF"/>
<path fill-rule="evenodd" clip-rule="evenodd" d="M8.90039 7.26211C8.90039 6.93074 9.16902 6.66211 9.50039 6.66211H14.5004C14.8318 6.66211 15.1004 6.93074 15.1004 7.26211C15.1004 7.59348 14.8318 7.86211 14.5004 7.86211H9.50039C9.16902 7.86211 8.90039 7.59348 8.90039 7.26211Z" fill="#0166FF"/>
</svg>

<svg xmlns="http://www.w3.org/2000/svg" width="24" height="24" fill="none"><path fill="#0166FF" fill-rule="evenodd" d="M11.912 2.9h.175c1.558 0 2.848 0 3.872.143 1.08.15 2.032.48 2.793 1.27.758.787 1.07 1.766 1.213 2.871.135 1.058.135 2.394.135 4.018v4.104c0 1.163 0 2.133-.076 2.874-.074.726-.246 1.551-.86 2.133a2.87 2.87 0 0 1-1.638.773c-.848.1-1.578-.323-2.154-.743-.588-.429-1.288-1.065-2.125-1.825l-.033-.03-.031-.029c-.409-.37-.657-.595-.856-.745a1.3 1.3 0 0 0-.184-.12.2.2 0 0 0-.04-.018.5.5 0 0 0-.204 0 .2.2 0 0 0-.042.017 1.3 1.3 0 0 0-.184.122h-.001c-.2.15-.444.371-.854.744l-.004.005-.027.023c-.851.776-1.562 1.423-2.16 1.857-.576.419-1.303.841-2.151.742a2.87 2.87 0 0 1-1.64-.773c-.613-.582-.784-1.41-.86-2.132-.076-.742-.076-1.712-.076-2.875v-4.104c0-1.626 0-2.96.136-4.017v-.002c.145-1.103.455-2.083 1.21-2.87.761-.79 1.716-1.12 2.794-1.27C9.063 2.9 10.353 2.9 11.912 2.9M8.206 4.231c.931-.13 2.138-.13 3.75-.13h.088c1.61 0 2.818 0 3.75.13m0 0c.938.13 1.59.392 2.093.914.506.524.76 1.212.887 2.193.125.972.126 2.232.126 3.904v4.03c0 1.205 0 2.112-.07 2.785-.068.68-.212 1.12-.492 1.386-.265.252-.6.409-.953.45-.366.044-.768-.128-1.306-.52-.532-.388-1.187-.983-2.06-1.776l-.031-.027c-.392-.357-.686-.623-.937-.813-.255-.193-.471-.307-.701-.356l-.008-.001a1.7 1.7 0 0 0-.684 0l-.007.001c-.23.05-.445.163-.7.355-.248.186-.533.446-.908.786l-.03.028-.026.023-.005.005c-.873.795-1.529 1.39-2.06 1.775-.54.392-.94.564-1.306.52a1.67 1.67 0 0 1-.953-.45c-.28-.265-.422-.704-.493-1.386-.069-.673-.07-1.58-.07-2.785v-4.03c0-1.674.002-2.931.126-3.904.13-.982.382-1.669.886-2.193.502-.522 1.157-.783 2.094-.914" clip-rule="evenodd"/><path fill="#0166FF" fill-rule="evenodd" d="M8.9 7.262a.6.6 0 0 1 .6-.6h5a.6.6 0 1 1 0 1.2h-5a.6.6 0 0 1-.6-.6" clip-rule="evenodd"/></svg>
